X: 81
T: PADDY WHACK
%R: jig
B: Jean White "100 Popular Hornpipes, Reels, Jigs and Country Dances", Boston 1880 p.34
F: http://www.loc.gov/resource/sm1880.09124.0#seq-1
Z: 2014 John Chambers <jc:trillian.mit.edu>
M: 6/8
L: 1/8
K: G
% - - - - - - - - - - - - - - - - - - - - - - - - - - - - -
|:\
g>BB B>AG | (Ee)e (Ff)f | g>BB B>AG | e>ag f>ed |\
g>BB B>AG | (Ee)e (Ff)f | (g>b)b b>ag | f>ef g2z :|
G>Bd g>fg | e>dc B>cA | G>Bd g>fg | e>af g2g/a/ |\
b>gb a>fd | g>eg f>dB | c>de A>Bc | E>AG F>ED |
G>Bd g>fg | e>dc B>cA | G>Bd g>fg | e>af g2g/a/ |\
b>gb a>fd | g>eg f>dB | c>de A>Bc | E>AF G2z H|]
% - - - - - - - - - - - - - - - - - - - - - - - - - - - - -

%%sep 1 1 500
%%sep 1 1 500
